!!!COM: Scriabin, Alexander
!!!OTL@@FR: Prélude
!!!OTL@@EN: Prelude
!!!OPR@@FR: 4 Préludes
!!!OPR@@EN: 4 Preludes
!!!OPS: 22
!!!ONM: 4
!!!ODT: 1897
!!!AGN: Prelude
**kern	**kern	**dynam
*staff2	*staff1	*staff1/2
*Ipiano	*Ipiano	*
*clefF4	*clefG2	*
*k[f#c#]	*k[f#c#]	*
*b:	*b:	*
*M4/4	*M4/4	*
*met(c)	*met(c)	*
8FF#L	8r	.
=1	=1	=1
8C#	8A#X 8e 8f#	.
8F#	8r	.
8EJ	8B 8e 8g	.
8DL	8r	.
8G	8d 8g 8b	.
8B	8r	.
8F#J	8d 8b 8dd	.
8EL	8r	.
=2	=2	=2
*	*^	*
8B	4ff#	2b 2dd	.
8f#	.	.	.
8eJ	4gg	.	.
8BL	.	.	.
8dd	4b 4gg 4bb	2rc	.
8g	.	.	.
8f#J	4cc# 4gg 4bb 4ccc#	.	.
8eL	.	.	.
=3	=3	=3	=3
8f#	4cc# 4ff# 4bb 4ccc#	2rc	.
8BBB	.	.	.
8FF#J	4f# 4b 4cc# 4ff#	.	.
8F#L	.	.	.
8BB	4f# 4b 4ff#	6cc#	.
8F#	.	.	.
.	.	6ee	.
8BJ	4raa	.	.
.	.	6dd	.
8f#L	.	.	.
=4	=4	=4	=4
8DJ	1ryy	6cc#	.
8r	.	.	.
.	.	6b	.
4r	.	.	.
.	.	6g	.
4r	.	6f#	.
.	.	6d	.
8r	.	.	.
.	.	6r	.
8FF#L	.	.	.
*	*v	*v	*
=5	=5	=5
8C#	8A#X 8e 8f#	.
8F#	8r	.
8EJ	8B 8e 8g	.
8DL	8r	.
8G	8d 8g 8b	.
8B	8r	.
8F#J	8d 8b 8dd	.
8EL	8r	.
=6	=6	=6
*	*^	*
8B	4ff#	2b 2dd	.
8f#	.	.	.
8eJ	4gg	.	.
8BL	.	.	.
8dd	4b 4ee 4gg 4bb	2rc	.
8g	.	.	.
8f#J	4ee 4bb 4ddd 4eee	.	.
8gL	.	.	.
=7	=7	=7	=7
8a	4ee 4aa 4ddd 4eee	2rc	.
8DD	.	.	.
8AAJ	4a 4dd 4ee 4aa	.	.
8AL	.	.	.
8D	4a 4dd 4aa	6ee	.
8A	.	.	.
.	.	6gg	.
8dJ	4raa	.	.
.	.	6ff#	.
8aL	.	.	.
=8	=8	=8	=8
8F#J	1ryy	6ee	.
8r	.	.	.
.	.	6dd	.
4r	.	.	.
.	.	6b	.
4r	.	6a	.
.	.	6f#	.
8r	.	.	.
.	.	6r	.
8AAL	.	.	.
*	*v	*v	*
=9	=9	=9
8E	8c# 8g 8a	.
8A	8r	.
8GJ	8d 8g 8b	.
8F#L	8r	.
8B	8f# 8b 8dd	.
8d	8r	.
8AJ	8a 8dd 8ff#	.
8EL	8r	.
=10	=10	=10
*	*^	*
8A	4ff#	2g 2a	.
8d	.	.	.
8c#J	4gg	.	.
8E-XL	.	.	.
8A	2aa	2g 2a 2cc#	.
8g	.	.	.
8c#J	.	.	.
8DL	.	.	.
*	*v	*v	*
=11	=11	=11
8A	8f# 8ccn 8dd	.
8d	8r	.
8cnJ	8g 8cc 8ee	.
8BL	8r	.
8e	8b 8ee 8gg	.
8g	8r	.
8dJ	8dd 8gg 8bb	.
8AL	8r	.
=12	=12	=12
*	*^	*
8d	4bb	2ccn 2dd	.
8g	.	.	.
8f#J	4cccn	.	.
8A-XL	.	.	.
8d	2ddd	2cc 2dd 2ff#	.
8ccn	.	.	.
8f#J	.	.	.
8GL	.	.	.
=13	=13	=13	=13
8fn	4ccc#X	4b 4ffn	.
8b	.	.	.
8dJ	4ddd	4ff 4bb	.
8GL	.	.	.
8c#	4eee	2ee 2bb	.
8b	.	.	.
8eJ	4bb	.	.
8GGL	.	.	.
=14	=14	=14	=14
8Fn	6cc#	2fn 2b	.
8B	.	.	.
.	6dd	.	.
8DJ	.	.	.
.	6dd#X	.	.
8GGL	.	.	.
8C#	8ff#XL	2e 2b	.
8B	8gg	.	.
8EJ	8ee	.	.
8FF#XL	8bJ	.	.
*	*v	*v	*
=15	=15	=15
8D	8g 8b 8dd	.
8B	8r	.
8EJ	8d 8g 8b	.
8BBL	8r	.
8D	8d 8f# 8a	.
8B	8r	.
8F#J	8A 8d 8f#	.
8FF#L	8r	.
=16	=16	=16
8D	2B 2e 2g	.
8G	.	.
8EJ	.	.
8FF#L	.	.
8C#	2A#X 2e 2f#	.
8F#	.	.
8FF#J	.	.
8BBBL	.	.
=17	=17	=17
*	*^	*
8FF#	4c#	2F# 2B	.
8C#	.	.	.
8BBJ	4d	.	.
8FF#L	.	.	.
8BB	4e	2B 2d	.
8G	.	.	.
8F#J	4f#	.	.
8EEL	.	.	.
=18	=18	=18	=18
8BB	4F# 4f#	2B 2d	.
8F#	.	.	.
8EJ	4G 4g	.	.
8BBL	.	.	.
8d	4B 4g 4b	2rc	.
8G	.	.	.
8F#J	4c# 4g 4b 4cc#	.	.
8EL	.	.	.
=19	=19	=19	=19
8F#	4c# 4cc#	2f# 2b	.
8BB	.	.	.
8BJ	4d 4dd	.	.
8F#L	.	.	.
8B	4e 4ee	2b 2dd	.
8g	.	.	.
8f#J	4f# 4ff#	.	.
8EL	.	.	.
=20	=20	=20	=20
8B	4f# 4ff#	2b 2dd	.
8f#	.	.	.
8eJ	4g 4gg	.	.
8BL	.	.	.
8dd	4b 4gg 4bb	2rc	.
8g	.	.	.
8f#J	4cc# 4gg 4bb 4ccc#	.	.
8eL	.	.	.
=21	=21	=21	=21
8f#	4cc# 4ff# 4bb 4ccc#	2rc	.
8BBB	.	.	.
8FF#J	4f# 4b 4cc# 4ff#	.	.
8F#L	.	.	.
8BB	4f# 4b 4ff#	6cc#	.
8F#	.	.	.
.	.	6ee	.
8BJ	4raa	.	.
.	.	6dd	.
8f#	.	.	.
=22	=22	=22	=22
4D	1ryy	6cc#	.
.	.	6b	.
4r	.	.	.
.	.	6g	.
4r	.	6f#	.
.	.	6d	.
8r	.	.	.
.	.	6c#	.
8FF#	.	.	.
*	*v	*v	*
=23	=23	=23
[1BBB [1FF# [1BB	[1D [1F# [1B [1d	.
=24	=24	=24
4BBB] 4FF#] 4BB]	4D] 4F#] 4B] 4d]	.
4r	4r	.
2r	2r	.
==	==	==
*-	*-	*-
!!!system-decoration: {(*)}
!!!ENC: Bryan Jacob Bell
!!!END: November 2021 to April 2022
!!!PED: Konstantin Igumnov and Yakov Milstein
!!!PTL: A.N. Skryabin: Polnoe sobranie sochinenii dlia fortepiano (Muzgiz)
